app/img/photos/serv-3.svg

<svg width="62" height="62" viewBox="0 0 62 62" fill="none" xmlns="http://www.w3.org/2000/svg">
<path d="M9.30037 16.0167H5.16708C4.59637 16.0167 4.13379 16.4794 4.13379 17.05C4.13379 17.6207 4.59637 18.0833 5.16708 18.0833H9.30037C9.87109 18.0833 10.3337 17.6206 10.3337 17.05C10.3337 16.4793 9.87109 16.0167 9.30037 16.0167Z" fill="white"/>
<path d="M58.9 10.85H55.8C55.7966 7.99793 53.4854 5.68673 50.6333 5.68334H49.6V4.65005C49.5982 2.93875 48.2113 1.55187 46.5 1.55005H15.5C13.7887 1.55187 12.4018 2.93875 12.4 4.65005V5.68334H11.3667C8.51459 5.68673 6.20339 7.99793 6.2 10.85H3.1C1.3887 10.8519 0.00181641 12.2388 0 13.95V31.5168C0.00145313 32.6576 0.925883 33.5819 2.06671 33.5835H4.13341V53.4072C2.89838 53.8422 2.07082 55.0074 2.06671 56.3169V59.4169C2.06634 59.9872 2.52844 60.4499 3.09879 60.4502C3.09915 60.4502 3.09964 60.4502 3.1 60.4502H11.3667C11.9371 60.4505 12.3998 59.9884 12.4 59.4181C12.4 59.4177 12.4 59.4172 12.4 59.4169V56.3169C12.396 55.0075 11.5683 53.8423 10.3333 53.4072V51.1501H16.5333V52.1833C16.5351 53.8946 17.922 55.2815 19.6333 55.2833H42.3666C44.0779 55.2815 45.4648 53.8946 45.4666 52.1833V51.1501H51.6666V53.4071C50.4315 53.8421 49.604 55.0072 49.5999 56.3168V59.4168C49.5995 59.9871 50.0616 60.4498 50.632 60.4501C50.6323 60.4501 50.6328 60.4501 50.6332 60.4501H58.9C59.4704 60.4504 59.9331 59.9883 59.9333 59.418C59.9333 59.4176 59.9333 59.4171 59.9333 59.4168V56.3168C59.9293 55.0074 59.1016 53.8422 57.8666 53.4071V33.5833H59.9333C61.0741 33.5819 61.9984 32.6575 62 31.5166V13.95C61.9982 12.2388 60.6113 10.8519 58.9 10.85ZM14.4667 4.65005C14.4671 4.07958 14.9295 3.61712 15.5 3.61676H46.5C47.0705 3.61712 47.5329 4.07958 47.5333 4.65005V5.68334H14.4667V4.65005ZM10.3333 58.3833H4.13329V56.3166C4.13366 55.7462 4.59611 55.2837 5.16659 55.2833H9.3C9.87059 55.2837 10.3329 55.7462 10.3333 56.3166V58.3833ZM6.2 53.2168V33.5833H8.26671V53.2166H6.2V53.2168ZM2.06671 31.5168V13.95C2.06707 13.3796 2.52953 12.9171 3.1 12.9168H11.3667C11.9372 12.9171 12.3996 13.3796 12.4 13.95L12.4007 20.1465L12.4 20.15L12.4007 20.1536L12.4019 30.474L12.4 30.4835L12.4019 30.4929L12.4021 31.5169H2.06671V31.5168ZM16.5333 49.0833H10.3333V47.0166H16.5333V49.0833ZM16.5333 44.9501H10.3333V33.5833H12.4C13.5408 33.5819 14.4651 32.6575 14.4667 31.5166H16.5334V44.9501H16.5333ZM16.5333 29.45H14.4666V21.1833H16.5333V29.45ZM43.4 52.1833C43.3996 52.7538 42.9372 53.2163 42.3667 53.2166H19.6333C19.0627 53.2163 18.6004 52.7538 18.6 52.1833V21.1833H43.4V52.1833ZM14.4667 19.1168V13.95C14.4649 12.2388 13.078 10.8519 11.3667 10.85H8.26671C8.26852 9.13875 9.65541 7.75187 11.3667 7.75005H50.6334C52.3447 7.75187 53.7316 9.13875 53.7334 10.85H50.6334C48.9221 10.8519 47.5352 12.2388 47.5334 13.95V19.1168H14.4667ZM47.5333 31.5168C47.5347 32.6576 48.4592 33.5819 49.6 33.5835H51.6667V44.9501H45.4667V31.5168H47.5333ZM45.4667 29.45V21.1833H47.5334V29.45H45.4667ZM45.4667 49.0833V47.0166H51.6667V49.0833H45.4667ZM57.8667 58.3833H51.6667V56.3166C51.6671 55.7462 52.1295 55.2837 52.7 55.2833H56.8333C57.4038 55.2837 57.8662 55.7462 57.8666 56.3166V58.3833H57.8667ZM53.7333 53.2168V33.5833H55.8V53.2166H53.7333V53.2168ZM56.8333 31.5168H49.6V13.95C49.6004 13.3796 50.0628 12.9171 50.6333 12.9168H58.9C59.4705 12.9171 59.9329 13.3796 59.9333 13.95L59.9354 31.5168H56.8333Z" fill="white"/>
<path d="M56.8336 16.0167H52.7003C52.1296 16.0167 51.667 16.4794 51.667 17.05C51.667 17.6207 52.1296 18.0833 52.7003 18.0833H56.8336C57.4043 18.0833 57.8669 17.6206 57.8669 17.05C57.867 16.4793 57.4043 16.0167 56.8336 16.0167Z" fill="white"/>
<path d="M44.4331 10.85H17.5665C16.9958 10.85 16.5332 11.3126 16.5332 11.8833C16.5332 12.454 16.9958 12.9166 17.5665 12.9166H44.4332C45.0039 12.9166 45.4665 12.454 45.4665 11.8833C45.4665 11.3126 45.0038 10.85 44.4331 10.85Z" fill="white"/>
<path d="M40.3015 27.3833C40.3011 27.3833 40.3006 27.3833 40.3003 27.3833H21.7003C21.1299 27.3829 20.6672 27.845 20.667 28.4154C20.667 28.4157 20.667 28.4162 20.667 28.4166V44.95C20.6666 45.5204 21.1287 45.9831 21.6991 45.9833C21.6994 45.9833 21.6999 45.9833 21.7003 45.9833H40.3003C40.8706 45.9837 41.3333 45.5216 41.3336 44.9512C41.3336 44.9509 41.3336 44.9504 41.3336 44.95V28.4167C41.3339 27.8464 40.8718 27.3837 40.3015 27.3833ZM39.267 38.75H35.1337C34.563 38.75 34.1004 39.2127 34.1004 39.7833C34.1004 40.3539 34.563 40.8166 35.1337 40.8166H39.267V43.9166H27.9003V40.8166H31.0003C31.571 40.8166 32.0336 40.354 32.0336 39.7833C32.0336 39.2126 31.571 38.75 31.0003 38.75H27.9003V37.7167C27.9003 37.146 27.4377 36.6834 26.867 36.6834C26.2963 36.6834 25.8337 37.146 25.8337 37.7167V43.9167H22.7337V29.45H25.8337V33.5833C25.8337 34.154 26.2963 34.6166 26.867 34.6166C27.4377 34.6166 27.9003 34.154 27.9003 33.5833V29.45H34.1936C34.6367 32.0464 36.6706 34.0803 39.267 34.5234V38.75ZM39.267 32.4032C37.8203 32.0265 36.6905 30.8967 36.3138 29.45H39.267V32.4032Z" fill="white"/>
</svg>

<svg width="62" height="62" viewBox="0 0 62 62" fill="none" xmlns="http://www.w3.org/2000/svg"><path d="M9.3 16.017H5.167a1.033 1.033 0 0 0 0 2.066H9.3a1.033 1.033 0 0 0 0-2.066z" fill="#fff"/><path d="M58.9 10.85h-3.1a5.173 5.173 0 0 0-5.167-5.167H49.6V4.65a3.103 3.103 0 0 0-3.1-3.1h-31a3.103 3.103 0 0 0-3.1 3.1v1.033h-1.033A5.173 5.173 0 0 0 6.2 10.85H3.1a3.103 3.103 0 0 0-3.1 3.1v17.567a2.07 2.07 0 0 0 2.067 2.067h2.066v19.823a3.095 3.095 0 0 0-2.066 2.91v3.1c0 .57.461 1.033 1.032 1.033h8.268c.57 0 1.033-.462 1.033-1.032v-3.101a3.095 3.095 0 0 0-2.067-2.91V51.15h6.2v1.033a3.103 3.103 0 0 0 3.1 3.1h22.734a3.103 3.103 0 0 0 3.1-3.1V51.15h6.2v2.257a3.095 3.095 0 0 0-2.067 2.91v3.1c0 .57.462 1.033 1.032 1.033H58.9c.57 0 1.033-.462 1.033-1.032v-3.101a3.095 3.095 0 0 0-2.066-2.91V33.583h2.066A2.07 2.07 0 0 0 62 31.517V13.95a3.103 3.103 0 0 0-3.1-3.1zm-44.433-6.2c0-.57.463-1.033 1.033-1.033h31c.57 0 1.033.463 1.033 1.033v1.033H14.467V4.65zm-4.134 53.733h-6.2v-2.066c0-.57.463-1.033 1.034-1.034H9.3c.57 0 1.033.463 1.033 1.034v2.066zM6.2 53.217V33.583h2.067v19.634H6.2zm-4.133-21.7V13.95c0-.57.463-1.033 1.033-1.033h8.267c.57 0 1.033.463 1.033 1.033v6.204l.002 10.32-.002.01.002.009v1.024H2.067zm14.466 17.566h-6.2v-2.066h6.2v2.066zm0-4.133h-6.2V33.583H12.4a2.07 2.07 0 0 0 2.067-2.066h2.066V44.95zm0-15.5h-2.066v-8.267h2.066v8.267zM43.4 52.183c0 .57-.463 1.033-1.033 1.034H19.633c-.57 0-1.033-.463-1.033-1.034v-31h24.8v31zM14.467 19.117V13.95a3.103 3.103 0 0 0-3.1-3.1h-3.1a3.103 3.103 0 0 1 3.1-3.1h39.266a3.103 3.103 0 0 1 3.1 3.1h-3.1a3.103 3.103 0 0 0-3.1 3.1v5.167H14.467zm33.066 12.4a2.07 2.07 0 0 0 2.067 2.067h2.067V44.95h-6.2V31.517h2.066zm-2.066-2.067v-8.267h2.066v8.267h-2.066zm0 19.633v-2.066h6.2v2.066h-6.2zm12.4 9.3h-6.2v-2.066c0-.57.462-1.033 1.033-1.034h4.133c.57 0 1.033.463 1.034 1.034v2.066zm-4.134-5.166V33.583H55.8v19.634h-2.067zm3.1-21.7H49.6V13.95c0-.57.463-1.033 1.033-1.033H58.9c.57 0 1.033.463 1.033 1.033l.002 17.567h-3.102z" fill="#fff"/><path d="M56.834 16.017H52.7a1.033 1.033 0 0 0 0 2.066h4.134a1.033 1.033 0 0 0 0-2.066zM44.433 10.85H17.567a1.033 1.033 0 1 0 0 2.067h26.866a1.033 1.033 0 1 0 0-2.067zm-4.132 16.533H21.7c-.571 0-1.034.462-1.034 1.032V44.95c0 .57.462 1.033 1.032 1.033H40.3c.57 0 1.033-.461 1.034-1.032V28.417c0-.57-.462-1.033-1.033-1.034zM39.267 38.75h-4.133a1.033 1.033 0 0 0 0 2.067h4.133v3.1H27.9v-3.1H31a1.033 1.033 0 1 0 0-2.067h-3.1v-1.033a1.033 1.033 0 1 0-2.066 0v6.2h-3.1V29.45h3.1v4.133a1.033 1.033 0 1 0 2.066 0V29.45h6.294a6.206 6.206 0 0 0 5.073 5.073v4.227zm0-6.347a4.126 4.126 0 0 1-2.953-2.953h2.953v2.953z" fill="#fff"/></svg>
